src/css/svg/maplibregl-ctrl-terrain.svg

<?xml version="1.0" encoding="UTF-8"?>
<svg xmlns="http://www.w3.org/2000/svg" xmlns:xlink="http://www.w3.org/1999/xlink" width="22px" height="22px" viewBox="0 0 22 22" version="1.1">
<g id="surface1">
<path d="M 1.753906 13.40625 L 6.207031 8.554688 L 9.296875 11.644531 L 12.578125 14.921875 L 13.546875 13.953125 L 10.238281 10.640625 L 14.082031 6.519531 L 20.230469 13.40625 L 21.3125 13.40625 L 21.3125 12.550781 L 14.105469 4.480469 L 9.265625 9.667969 L 6.167969 6.570312 L 0.6875 12.535156 L 0.6875 13.40625 Z M 1.753906 13.40625 "/>
<path d="M 0.6875 16.84375 L 21.3125 16.84375 L 21.3125 18.21875 L 0.6875 18.21875 Z M 0.6875 16.84375 "/>
</g>
</svg>

<svg xmlns="http://www.w3.org/2000/svg" width="22" height="22" viewBox="0 0 22 22">
    <path d="m1.754 13.406 4.453-4.851 3.09 3.09 3.281 3.277.969-.969-3.309-3.312 3.844-4.121 6.148 6.886h1.082v-.855l-7.207-8.07-4.84 5.187L6.169 6.57l-5.48 5.965v.871ZM.688 16.844h20.625v1.375H.688Zm0 0"/>
</svg>
